<?xml version="1.0" encoding="UTF-8"?>
<map version="1.10" tiledversion="1.11.0" orientation="orthogonal" renderorder="right-down" width="15" height="23" tilewidth="16" tileheight="16" infinite="0" nextlayerid="6" nextobjectid="22">
 <tileset firstgid="1" source="tiles.tsx"/>
 <layer id="1" name="Ground" width="15" height="23">
  <data encoding="csv">
20,21,20,21,20,21,20,21,20,21,20,21,20,21,20,
17,18,17,17,18,17,17,18,17,17,18,17,17,18,17,
13,13,13,13,13,13,13,13,13,13,13,13,13,13,13,
11,11,11,12,11,11,11,11,12,11,11,11,11,12,11,
11,11,11,11,12,11,11,11,11,12,11,11,11,11,12,
12,11,11,11,11,12,11,11,11,11,12,11,11,11,11,
11,12,11,11,11,11,12,11,11,11,11,12,11,11,11,
15,15,15,15,15,15,15,15,15,15,15,15,15,15,15,
7,7,7,7,7,7,7,7,7,7,7,7,7,7,7,
9,9,9,9,9,9,9,9,9,9,9,9,9,9,9,
4,4,4,4,4,4,4,4,4,4,4,4,4,4,4,
10,10,10,10,10,10,10,10,10,10,10,10,10,10,10,
3,3,3,3,3,3,3,3,3,3,3,3,3,3,3,
7,7,7,7,7,7,7,7,7,7,7,7,7,7,7,
8,8,8,8,8,8,8,8,8,8,8,8,8,8,8,
9,9,9,9,9,9,9,9,9,9,9,9,9,9,9,
8,8,8,8,8,8,8,8,8,8,8,8,8,8,8,
8,8,8,8,8,8,8,8,8,8,8,8,8,8,8,
6,6,6,6,6,6,6,6,6,6,6,6,6,6,6,
22,22,2,22,22,22,22,2,22,22,22,22,2,22,22,
1,1,1,2,1,1,1,1,1,1,2,1,1,1,1,
1,2,1,1,1,1,1,2,1,1,1,1,1,2,1,
1,1,1,1,1,2,1,1,1,1,1,1,1,1,1
</data>
 </layer>
 <layer id="2" name="Walls" width="15" height="23" visible="0">
  <data encoding="csv">
0,0,0,0,0,0,0,0,0,0,0,0,0,0,0,
16,0,16,16,0,16,16,0,16,16,0,16,16,0,16,
0,0,0,0,0,0,0,0,0,0,0,0,0,0,0,
0,0,0,0,0,0,0,0,0,0,0,0,0,0,0,
0,0,0,0,0,0,0,0,0,0,0,0,0,0,0,
0,0,0,0,0,0,0,0,0,0,0,0,0,0,0,
0,0,0,0,0,0,0,0,0,0,0,0,0,0,0,
0,0,0,0,0,0,0,0,0,0,0,0,0,0,0,
0,0,0,0,0,0,0,0,0,0,0,0,0,0,0,
0,0,0,0,0,0,0,0,0,0,0,0,0,0,0,
0,0,0,0,0,0,0,0,0,0,0,0,0,0,0,
0,0,0,0,0,0,0,0,0,0,0,0,0,0,0,
0,0,0,0,0,0,0,0,0,0,0,0,0,0,0,
0,0,0,0,0,0,0,0,0,0,0,0,0,0,0,
0,0,0,0,0,0,0,0,0,0,0,0,0,0,0,
0,0,0,0,0,0,0,0,0,0,0,0,0,0,0,
0,0,0,0,0,0,0,0,0,0,0,0,0,0,0,
0,0,0,0,0,0,0,0,0,0,0,0,0,0,0,
0,0,0,0,0,0,0,0,0,0,0,0,0,0,0,
16,16,16,16,16,16,16,16,16,16,16,16,16,16,16,
0,0,0,0,0,0,0,0,0,0,0,0,0,0,0,
0,0,0,0,0,0,0,0,0,0,0,0,0,0,0,
0,0,0,0,0,0,0,0,0,0,0,0,0,0,0
</data>
 </layer>
 <layer id="3" name="Water" width="15" height="23" visible="0">
  <data encoding="csv">
0,0,0,0,0,0,0,0,0,0,0,0,0,0,0,
0,0,0,0,0,0,0,0,0,0,0,0,0,0,0,
11,11,11,11,11,11,11,11,11,11,11,11,11,11,11,
11,11,11,11,11,11,11,11,11,11,11,11,11,11,11,
11,11,11,11,11,11,11,11,11,11,11,11,11,11,11,
11,11,11,11,11,11,11,11,11,11,11,11,11,11,11,
11,11,11,11,11,11,11,11,11,11,11,11,11,11,11,
0,0,0,0,0,0,0,0,0,0,0,0,0,0,0,
0,0,0,0,0,0,0,0,0,0,0,0,0,0,0,
0,0,0,0,0,0,0,0,0,0,0,0,0,0,0,
0,0,0,0,0,0,0,0,0,0,0,0,0,0,0,
0,0,0,0,0,0,0,0,0,0,0,0,0,0,0,
0,0,0,0,0,0,0,0,0,0,0,0,0,0,0,
0,0,0,0,0,0,0,0,0,0,0,0,0,0,0,
0,0,0,0,0,0,0,0,0,0,0,0,0,0,0,
0,0,0,0,0,0,0,0,0,0,0,0,0,0,0,
0,0,0,0,0,0,0,0,0,0,0,0,0,0,0,
0,0,0,0,0,0,0,0,0,0,0,0,0,0,0,
0,0,0,0,0,0,0,0,0,0,0,0,0,0,0,
0,0,0,0,0,0,0,0,0,0,0,0,0,0,0,
0,0,0,0,0,0,0,0,0,0,0,0,0,0,0,
0,0,0,0,0,0,0,0,0,0,0,0,0,0,0,
0,0,0,0,0,0,0,0,0,0,0,0,0,0,0
</data>
 </layer>
 <objectgroup id="4" name="Actors">
  <object id="1" name="start" class="actCat" x="112" y="288" width="16" height="16"/>
  <object id="2" class="actBox" x="16" y="16" width="16" height="16"/>
  <object id="3" class="actBox" x="64" y="16" width="16" height="16"/>
  <object id="4" class="actBox" x="112" y="16" width="16" height="16"/>
  <object id="5" class="actBox" x="160" y="16" width="16" height="16"/>
  <object id="6" class="actBox" x="208" y="16" width="16" height="16"/>
  <object id="7" class="actSignal" x="0" y="160" width="16" height="16"/>
  <object id="8" class="actSignal" x="224" y="192" width="16" height="16"/>
 </objectgroup>
 <objectgroup id="5" name="Lanes">
  <object id="9" name="lane2" class="actLane" x="0" y="32" width="240" height="16">
   <properties>
    <property name="actor" value="actCrate"/>
    <property name="speed" type="float" value="0.5"/>
    <property name="count" type="int" value="3"/>
    <property name="size" type="int" value="3"/>
   </properties>
  </object>
  <object id="10" name="lane3" class="actLane" x="0" y="48" width="240" height="16">
   <properties>
    <property name="actor" value="actDuck"/>
    <property name="speed" type="float" value="-0.6"/>
    <property name="count" type="int" value="3"/>
    <property name="size" type="int" value="2"/>
    <property name="dive" type="bool" value="true"/>
   </properties>
  </object>
  <object id="11" name="lane4" class="actLane" x="0" y="64" width="240" height="16">
   <properties>
    <property name="actor" value="actCrate"/>
    <property name="speed" type="float" value="0.9"/>
    <property name="count" type="int" value="2"/>
    <property name="size" type="int" value="4"/>
   </properties>
  </object>
  <object id="12" name="lane5" class="actLane" x="0" y="80" width="240" height="16">
   <properties>
    <property name="actor" value="actDuck"/>
    <property name="speed" type="float" value="-0.5"/>
    <property name="count" type="int" value="3"/>
    <property name="size" type="int" value="3"/>
    <property name="dive" type="bool" value="true"/>
   </properties>
  </object>
  <object id="13" name="lane6" class="actLane" x="0" y="96" width="240" height="16">
   <properties>
    <property name="actor" value="actCrate"/>
    <property name="speed" type="float" value="0.6"/>
    <property name="count" type="int" value="3"/>
    <property name="size" type="int" value="2"/>
   </properties>
  </object>
  <object id="14" name="lane8" class="actLane" x="0" y="128" width="240" height="16">
   <properties>
    <property name="actor" value="actBike"/>
    <property name="speed" type="float" value="1.4"/>
    <property name="count" type="int" value="2"/>
   </properties>
  </object>
  <object id="15" name="lane9" class="actLane" x="0" y="144" width="240" height="16">
   <properties>
    <property name="actor" value="actBike"/>
    <property name="speed" type="int" value="-1"/>
    <property name="count" type="int" value="3"/>
   </properties>
  </object>
  <object id="16" name="track" class="actTrack" x="0" y="176" width="240" height="16">
   <properties>
    <property name="speed" type="int" value="5"/>
    <property name="cars" type="int" value="4"/>
    <property name="interval" type="int" value="10"/>
   </properties>
  </object>
  <object id="17" name="lane13" class="actLane" x="0" y="208" width="240" height="16">
   <properties>
    <property name="actor" value="actTruck"/>
    <property name="speed" type="float" value="-0.5"/>
    <property name="count" type="int" value="2"/>
   </properties>
  </object>
  <object id="18" name="lane14" class="actLane" x="0" y="224" width="240" height="16">
   <properties>
    <property name="actor" value="actCar"/>
    <property name="speed" type="float" value="-0.9"/>
    <property name="count" type="int" value="3"/>
   </properties>
  </object>
  <object id="19" name="lane15" class="actLane" x="0" y="240" width="240" height="16">
   <properties>
    <property name="actor" value="actCar"/>
    <property name="speed" type="float" value="0.7"/>
    <property name="count" type="int" value="3"/>
   </properties>
  </object>
  <object id="20" name="lane16" class="actLane" x="0" y="256" width="240" height="16">
   <properties>
    <property name="actor" value="actCar"/>
    <property name="speed" type="float" value="1.3"/>
    <property name="count" type="int" value="2"/>
   </properties>
  </object>
  <object id="21" name="lane17" class="actLane" x="0" y="272" width="240" height="16">
   <properties>
    <property name="actor" value="actCar"/>
    <property name="speed" type="float" value="0.6"/>
    <property name="count" type="int" value="3"/>
   </properties>
  </object>
 </objectgroup>
</map>
